svgs/sharp-solid/italic.svg

<svg xmlns="http://www.w3.org/2000/svg" viewBox="0 0 384 512"><!--! Font Awesome Pro 6.6.0 by @fontawesome - https://fontawesome.com License - https://fontawesome.com/license (Commercial License) Copyright 2024 Fonticons, Inc. --><path d="M128 32l32 0 192 0 32 0 0 64-32 0-58.7 0L160 416l64 0 32 0 0 64-32 0L32 480 0 480l0-64 32 0 58.7 0L224 96l-64 0-32 0 0-64z"/></svg>

<svg xmlns="http://www.w3.org/2000/svg" viewBox="0 0 384 512"><!--! Font Awesome Pro 6.4.2 by @fontawesome - https://fontawesome.com License - https://fontawesome.com/license (Commercial License) Copyright 2023 Fonticons, Inc. --><path d="M128 32h32H352h32V96H352 293.3L160 416h64 32v64H224 32 0V416H32 90.7L224 96H160 128V32z"/></svg>
